X:1
T:Isaac Watts, 1719 (Hymn 50, Book 2) 86. 86. (C. M.).
T:C Major Oliver Holden, 1796
T:Contentment
T:No copyright. Transcribed from The Union Harmony, 1796.
%%score [ 1 2 3 4 ]
L:1/8
M:4/4
K:C
V:1 treble nm="Treble" snm="Tr."
V:2 treble nm="Voice"
V:3 treble-8 nm="Tenor"
V:4 bass nm="Bass"
V:1
 G4 | G4 G4 | c4 (c2 d2) | (e2 c2) (B2 A2) | (A2 G2) (E2 G2) | (c2 e2) (d2 c2) | c3 c c2 [Ac]2 | %7
w: |||||||
 B8 | z4 G4 | c4 d4 | e4 (B2 cd) | (c3 B A2) c2 | B6 B2 | (c2 G2) (d2 f2) | (edcd e2) d2 | c4 B4 | %16
w: |||||||||
 c8 | z8 | z4 C4 | FE FG A2 G2 | G2 E2 F2 c2 | FE FG A2 A2 | G2 G2 G2 G2 | BA Bc d2 cd | e4 d4 | %25
w: ||Now|let * my * min- utes|smooth- ly run, Now|let * my * min- utes|smooth- ly run, While|here * I * wait my *|Fath- er's|
 c6 B2 | c2 d2 c2 A2 | B2 d2 d2 e2 | d2 B2 d2 c2 | (B3 c d2) B2 | c8 | %31
w: will; *||||||
V:2
 E4 | C4 E4 | E4 E4 | E4 D4 | C4 C4 | (E2 G2) (G2 E2) | C3 E E2 D2 | D8 | z4 C4 | E4 F4 | G4 F4 | %11
w: Now|let the|Lord my|Sav- ior|smile, And|show * my *|name up- on His|heart,|I|would for-|get my|
 (E3 F G2) G2 | G6 G2 | E4 F4 | G6 F2 | E4 D4 | E8 | z8 | z8 | z4 C4 | C2 C2 C2 E2 | D2 D2 D2 D2 | %22
w: pains~ _ _ a-|while, And|in the|plea- sure|lose the|smart.|||Now|let my min- utes|smooth- ly run, While|
 E2 E2 (E4 | G6) G2 | G4 F4 | E6 G2 | G2 G2 C2 E2 | F2 G2 G2 G2 | G2 G2 G2 G2 | G6 F2 | E8 | %31
w: here I wait~|_ my|Fath- er's|will; My|ri- sing and my|set- ting sun Roll|gent- ly up and|down the|hill.|
V:3
 C4 | E4 (D2 C2) | G4 (A2 B2) | (c2 A2) (G2 F2) | (F2 E2) (C2 E2) | (G2 c2) (B2 A2) | G3 A G2 ^F2 | %7
w: |||||||
 G8 | z4 (G3 c) | A4 B4 | c4 (d2 ef) | (e3 d c2) e2 | d6 G2 | (A2 c2) (B2 d2) | (cBAB c2) F2 | %15
w: ||||||||
 E4 D4 | C8 | z4 C4 | G2 G2 E2 E2 | DC DE D2 C2 | G2 G2 A2 G2 | AG AB c2 c2 | cB cd (e2 fe | %23
w: ||Now|let my min- utes|smooth- * ly * run, Now|let my min- utes|smooth- * ly * run, *||
 d6) ed | c4 B4 | c6 d2 | e2 g2 e2 c2 | d2 B2 G2 c2 | B2 d2 g2 e2 | (d3 c B2) d2 | c8 | %31
w: ||||||||
V:4
 C,4 | C,4 C,4 | C,4 C,4 | C,4 G,,4 | C,4 C,4 | C,4 (G,2 E,2) | C,3 C, C,2 D,2 | G,,8 | z4 C,4 | %9
w: |||||||||
 C,4 G,4 | E,4 G,4 | C,4 C,4 | G,6 G,2 | E,4 G,4 | C,6 F,2 | G,4 G,,4 | C,8 | z8 | z8 | z4 C,4 | %20
w: ||||||||||Now|
 C,2 C,2 F,2 E,2 | D,2 D,2 D,2 D,2 | C,2 C,2 (C,D,E,F, | G,6) E,F, | G,4 G,,4 | C,6 G,2 | %26
w: let my mn- utes|smooth- ly run, While|here I wait~ _ _ _|_ my *|Fath- er's|will; *|
 C2 B,2 A,2 C2 | G,2 G,2 G,2 E,2 | G,2 G,2 G,2 C2 | G,6 G,2 | C,8 | %31
w: |||||

